icon-themes/sifr_svg/cmd/lc_spacing.svg

<svg viewBox="0 0 24 24" xmlns="http://www.w3.org/2000/svg"><path d="m14 2v14h2 1.261719c-.161719-.315359-.261719-.661967-.261719-1v-1h-1v-4h4c1.10457 0 2 .89543 2 2 0 .852018-.534583 1.57511-1.285156 1.863281l1.476562 1.476719c1.087561-.715112 1.808594-1.94 1.808594-3.34 0-2.2-1.8-4-4-4h-4v-6zm-12 4v2h6v2h-5c-1.656854 0-3 1.343146-3 3 0 1.124571.62536803 2.1 1.5410156 2.607422l1.6074219-1.607422h-.1484375c-.552284 0-1-.447716-1-1s.447716-1 1-1h5v2h-1v1c0 .338033-.0859213.684641-.2617188 1h3.2617188v-8c0-1.10457-.89543-2-2-2zm3 8c-.26531 0-.53058.1-.71875.28125l-4 4-.28125.28125v.875l.28125.28125 4 4c.18818.18821.45346.28125.71875.28125h1v-1c0-.26531-.1-.53057-.28125-.71875l-2.28125-2.28125h17.125l-2.28125 2.28125c-.18811.18818-.28125.45344-.28125.71875v1h1c.26529 0 .53057-.09304.71875-.28125l4-4 .28125-.28125v-.875l-.28125-.28125-4-4c-.18817-.18125-.45344-.28125-.71875-.28125h-1v1c0 .2653.0931.53058.28125.71875l2.28125 2.28125h-17.125l2.28125-2.28125c.18815-.18817.28125-.45345.28125-.71875v-1z" fill="#555753"/></svg>

<svg xmlns="http://www.w3.org/2000/svg" viewBox="0 0 24 24">
  <path
     style="fill:#555753"
     d="M 14 2 L 14 16 L 16 16 L 17.261719 16 C 17.1 15.684641 17 15.338033 17 15 L 17 14 L 16 14 L 16 10 L 20 10 C 21.10457 10 22 10.89543 22 12 C 22 12.852018 21.465417 13.57511 20.714844 13.863281 L 22.191406 15.34 C 23.278967 14.624888 24 13.4 24 12 C 24 9.8 22.2 8 20 8 L 16 8 L 16 2 L 14 2 z M 2 6 L 2 8 L 8 8 L 8 10 L 3 10 C 1.343146 10 0 11.343146 0 13 C 0 14.124571 0.62536803 15.1 1.5410156 15.607422 L 3.1484375 14 L 3 14 C 2.447716 14 2 13.552284 2 13 C 2 12.447716 2.447716 12 3 12 L 8 12 L 8 14 L 7 14 L 7 15 C 7 15.338033 6.9140787 15.684641 6.7382812 16 L 10 16 L 10 8 C 10 6.89543 9.10457 6 8 6 L 2 6 z M 5 14 C 4.73469 14 4.46942 14.1 4.28125 14.28125 L 0.28125 18.28125 L 0 18.5625 L 0 19.4375 L 0.28125 19.71875 L 4.28125 23.71875 C 4.46943 23.90696 4.73471 24 5 24 L 6 24 L 6 23 C 6 22.73469 5.9 22.46943 5.71875 22.28125 L 3.4375 20 L 20.5625 20 L 18.28125 22.28125 C 18.09314 22.46943 18 22.73469 18 23 L 18 24 L 19 24 C 19.26529 24 19.53057 23.90696 19.71875 23.71875 L 23.71875 19.71875 L 24 19.4375 L 24 18.5625 L 23.71875 18.28125 L 19.71875 14.28125 C 19.53058 14.1 19.26531 14 19 14 L 18 14 L 18 15 C 18 15.2653 18.0931 15.53058 18.28125 15.71875 L 20.5625 18 L 3.4375 18 L 5.71875 15.71875 C 5.9069 15.53058 6 15.2653 6 15 L 6 14 L 5 14 z "
     />
</svg>
